src/4-icons/pay-with-card.svg

<svg width="260" height="260" viewBox="0 0 260 260" fill="none" xmlns="http://www.w3.org/2000/svg">
<path d="M85.4166 151.042H39.9541V7.99695H114.036" stroke="black" stroke-width="8" stroke-linecap="round" stroke-linejoin="round"/>
<path d="M94.3533 23.0911H54.7085V61.5463H94.3533V23.0911Z" stroke="black" stroke-width="7" stroke-linecap="round" stroke-linejoin="round"/>
<path d="M119.374 19.0927C120.434 19.0927 121.451 19.5139 122.201 20.2638C122.951 21.0137 123.372 22.0307 123.372 23.0911V63.6455C125.763 62.2493 128.473 61.4946 131.242 61.4546C134.01 61.4146 136.741 62.0907 139.171 63.4173C141.601 64.7439 143.647 66.676 145.11 69.0261C146.573 71.3762 147.405 74.0646 147.523 76.8305L148.193 91.9647C149.985 90.6669 152.015 89.7351 154.167 89.2226C156.319 88.7101 158.552 88.6269 160.736 88.9779C162.921 89.3288 165.015 90.1069 166.898 91.2678C168.782 92.4287 170.418 93.9495 171.713 95.7432C174.718 92.7897 178.766 91.1409 182.979 91.155H183.059C186.449 91.1823 189.743 92.2863 192.466 94.3076C195.188 96.3289 197.197 99.163 198.203 102.401C200.276 100.757 202.728 99.6597 205.335 99.2086C207.942 98.7575 210.62 98.9671 213.125 99.8183C215.63 100.669 217.881 102.135 219.673 104.081C221.465 106.027 222.741 108.391 223.384 110.957L223.464 111.277C225.363 118.714 225.403 118.854 225.983 123.582C226.113 124.582 226.273 125.872 226.492 127.521C226.497 127.611 226.497 127.701 226.492 127.791C229.491 175.173 227.682 198.894 211.798 217.876L211.858 234.95H116.455L117.614 214.388C97.9519 201.003 95.3729 188.557 91.5343 174.493C91.0145 172.574 90.4547 170.494 89.815 168.345C87.246 159.519 83.0176 143.355 83.5974 134.298C83.8073 131.02 89.5951 119.684 94.3832 110.757L94.5032 110.548C95.9026 108.264 98.0038 106.496 100.492 105.506C102.981 104.517 105.723 104.36 108.308 105.06V23.0911C108.308 22.0307 108.729 21.0137 109.479 20.2638C110.229 19.5139 111.246 19.0927 112.306 19.0927H119.374ZM119.374 14.0946H112.306C109.92 14.0946 107.632 15.0425 105.945 16.7296C104.258 18.4168 103.31 20.7051 103.31 23.0911V99.6917C100.65 99.9594 98.0888 100.838 95.8244 102.258C93.56 103.678 91.6539 105.601 90.2548 107.879V107.959V108.038L90.1249 108.268V108.318C79.1291 128.83 78.8492 132.389 78.7492 133.909C78.1595 143.225 81.908 158.499 85.1568 169.675C85.7965 171.844 86.3463 173.853 86.8561 175.732C87.0361 176.392 87.206 177.032 87.3759 177.682C90.9745 190.997 94.3732 203.602 112.606 216.807L111.607 234.6L111.157 239.908H216.896V234.91V219.626C224.683 209.809 229.141 198.784 231.251 184.179C233.17 170.934 233.25 154.521 231.58 127.551C231.58 127.281 231.58 127.051 231.53 126.941V126.841C231.341 125.402 231.191 124.252 231.071 123.303V122.933C230.461 117.935 230.351 117.505 228.472 110.168V110.018L228.392 109.728C227.669 106.853 226.34 104.166 224.494 101.847C222.649 99.527 220.329 97.6284 217.691 96.2778C215.052 94.9273 212.155 94.156 209.195 94.0155C206.234 93.875 203.277 94.3686 200.522 95.4633C198.612 92.6026 196.024 90.2575 192.99 88.6359C189.956 87.0143 186.569 86.1662 183.129 86.1669H183.009C179.25 86.1576 175.557 87.1551 172.313 89.0558C169.678 86.7936 166.542 85.1913 163.164 84.3813C159.787 83.5713 156.265 83.5769 152.891 84.3976L152.551 76.6106C152.423 73.6613 151.678 70.7717 150.361 68.1293C149.045 65.487 147.188 63.1507 144.911 61.2722C142.634 59.3937 139.987 58.0149 137.143 57.2252C134.299 56.4355 131.32 56.2525 128.4 56.6882V23.0911C128.4 20.7051 127.452 18.4168 125.765 16.7296C124.078 15.0425 121.79 14.0946 119.404 14.0946H119.374Z" fill="white"/>
<path d="M119.374 138.217V23.0911H112.307V138.217" fill="black"/>
<path d="M119.374 138.217V23.0911H112.307V138.217" stroke="black" stroke-width="8" stroke-linecap="round" stroke-linejoin="round"/>
<path d="M170.964 113.956V105.619C170.959 102.204 169.597 98.93 167.179 96.5176C164.761 94.1052 161.484 92.7516 158.069 92.7543V92.7543C154.649 92.7543 151.369 94.1129 148.951 96.5311C146.532 98.9494 145.174 102.229 145.174 105.649V113.956" stroke="black" stroke-width="8" stroke-linecap="round" stroke-linejoin="round"/>
<path d="M145.144 113.956L143.504 76.9703C143.37 73.8604 142.04 70.9224 139.792 68.7693C137.544 66.6163 134.552 65.4145 131.439 65.4148V65.4148C128.234 65.4148 125.16 66.6881 122.893 68.9545C120.627 71.221 119.354 74.2949 119.354 77.5001V146.943" stroke="black" stroke-width="8" stroke-linecap="round" stroke-linejoin="round"/>
<path d="M195.904 115.865L195.334 110.387L194.865 105.919C194.56 102.985 193.184 100.265 191.001 98.2811C188.817 96.2969 185.979 95.1869 183.029 95.1633V95.1633C181.445 95.1488 179.873 95.4484 178.405 96.0447C176.937 96.641 175.602 97.5223 174.476 98.6376C173.35 99.7529 172.457 101.08 171.847 102.543C171.238 104.005 170.924 105.574 170.924 107.159V113.956" stroke="black" stroke-width="8" stroke-linecap="round" stroke-linejoin="round"/>
<path d="M207.929 253.003L207.819 216.377C223.943 197.844 225.472 175.013 222.524 128.011C221.364 119.174 221.894 121.273 219.595 112.237L219.515 111.917C218.87 109.359 217.39 107.089 215.31 105.467C213.229 103.845 210.667 102.963 208.029 102.96V102.96C206.369 102.961 204.727 103.311 203.21 103.986C201.693 104.662 200.335 105.648 199.223 106.881C198.111 108.115 197.271 109.567 196.756 111.146C196.241 112.725 196.063 114.394 196.234 116.045V116.045" stroke="black" stroke-width="8" stroke-linecap="round" stroke-linejoin="round"/>
<path d="M119.573 253.003L121.723 212.298C98.8514 197.304 99.0514 185.719 93.6634 167.196C90.1648 155.09 87.1659 141.726 87.5858 134.528C87.7857 131.429 97.9018 112.627 97.9018 112.627C98.8633 111.077 100.298 109.878 101.994 109.206C103.689 108.535 105.556 108.427 107.318 108.898V108.898C110.727 109.808 111.946 111.237 112.316 114.746V139.306L119.384 146.954" stroke="black" stroke-width="8" stroke-linecap="round" stroke-linejoin="round"/>
</svg>

<svg width="260" height="260" fill="none" xmlns="http://www.w3.org/2000/svg"><path d="M85.417 151.042H39.954V7.997h74.082" stroke="#000" stroke-width="8" stroke-linecap="round" stroke-linejoin="round"/><path d="M94.353 23.091H54.71v38.455h39.644V23.091Z" stroke="#000" stroke-width="7" stroke-linecap="round" stroke-linejoin="round"/><path d="M119.374 19.093a3.999 3.999 0 0 1 3.998 3.998v40.555a16.065 16.065 0 0 1 24.151 13.184l.67 15.135a16.834 16.834 0 0 1 23.52 3.778 15.995 15.995 0 0 1 11.266-4.588h.08a15.99 15.99 0 0 1 15.144 11.246 15.817 15.817 0 0 1 14.922-2.583 15.832 15.832 0 0 1 10.259 11.139l.08.32c1.899 7.437 1.939 7.577 2.519 12.305.13 1 .29 2.29.509 3.939.005.09.005.18 0 .27 2.999 47.382 1.19 71.103-14.694 90.085l.06 17.074h-95.403l1.159-20.562c-19.662-13.385-22.241-25.831-26.08-39.895-.52-1.919-1.08-3.999-1.719-6.148-2.569-8.826-6.797-24.99-6.218-34.047.21-3.278 5.998-14.614 10.786-23.541l.12-.209a12.397 12.397 0 0 1 13.805-5.488V23.091a3.998 3.998 0 0 1 3.998-3.998h7.068Zm0-4.998h-7.068a8.995 8.995 0 0 0-8.996 8.996v76.6a17.361 17.361 0 0 0-13.055 8.188v.159l-.13.23v.05c-10.996 20.512-11.276 24.071-11.376 25.591-.59 9.316 3.159 24.59 6.408 35.766.64 2.169 1.19 4.178 1.7 6.057.18.66.349 1.3.519 1.95 3.599 13.315 6.997 25.92 25.23 39.125l-.999 17.793-.45 5.308h105.739v-20.282c7.787-9.817 12.245-20.842 14.355-35.447 1.919-13.245 1.999-29.658.329-56.628 0-.27 0-.5-.05-.61v-.1a779.343 779.343 0 0 1-.459-3.538v-.37c-.61-4.998-.72-5.428-2.599-12.765v-.15l-.08-.29a20.807 20.807 0 0 0-27.87-14.265 20.905 20.905 0 0 0-17.393-9.296h-.12a21.055 21.055 0 0 0-10.696 2.889 21.875 21.875 0 0 0-19.422-4.658l-.34-7.787a21.058 21.058 0 0 0-7.64-15.339 21.062 21.062 0 0 0-16.511-4.584V23.091a8.997 8.997 0 0 0-8.996-8.996h-.03Z" fill="#fff"/><path d="M119.374 138.217V23.091h-7.067v115.126" fill="#000"/><path d="M119.374 138.217V23.091h-7.067v115.126m58.657-24.261v-8.337a12.885 12.885 0 0 0-12.895-12.865v0a12.894 12.894 0 0 0-12.895 12.895v8.307" stroke="#000" stroke-width="8" stroke-linecap="round" stroke-linejoin="round"/><path d="m145.144 113.956-1.64-36.986a12.076 12.076 0 0 0-12.065-11.555v0A12.088 12.088 0 0 0 119.354 77.5v69.443m76.55-31.078-.57-5.478-.469-4.468a11.999 11.999 0 0 0-11.836-10.756v0a11.997 11.997 0 0 0-12.105 11.996v6.797m37.005 139.047-.11-36.626c16.124-18.533 17.653-41.364 14.705-88.366-1.16-8.837-.63-6.738-2.929-15.774l-.08-.32a11.856 11.856 0 0 0-11.486-8.957v0a11.873 11.873 0 0 0-8.806 3.921 11.865 11.865 0 0 0-2.989 9.164v0" stroke="#000" stroke-width="8" stroke-linecap="round" stroke-linejoin="round"/><path d="m119.573 253.003 2.15-40.705c-22.872-14.994-22.672-26.579-28.06-45.102-3.498-12.106-6.497-25.47-6.077-32.668.2-3.099 10.316-21.901 10.316-21.901a8.499 8.499 0 0 1 9.416-3.729v0c3.409.91 4.628 2.339 4.998 5.848v24.56l7.068 7.648" stroke="#000" stroke-width="8" stroke-linecap="round" stroke-linejoin="round"/></svg>
